X:1
T:Title
%%score ( 1 2 ) { 3 | 4 }
L:1/8
M:4/4
K:Eb
V:1 treble nm="Grand Piano, Piano"
V:2 treble 
V:3 bass nm="Grand Piano, Piano"
V:4 bass 
V:1
 z4 z2[Q:1/4=100] z F | [EG]2 [EG]2 [EG][FA] [GB]2 | [FA]2 [FA]2 [FA][EG] [DF]2 | %3
w: |Jor dan's~ stor * my~|banks~ I~ stand,~ * and~|
[M:2/4] [EG]2 [EG]2 | GA [EB]2 |[M:4/4] [DF]6 GF | E2 z F [EG]2 [FA]2 | [GB]2 [Ge]2 [GB]2 BA | %8
w: cast~ a~|wish * ful~|eye~ to~ *|Ca * fair~ and~|hap py~ land,~ where~ *|
 [EG]2 [EG]E [DF]2 [DF]2 |[M:3/4] [B,E]6 |[M:1/4] E[EF] |[M:4/4] [EG]2 [EG]>[EG] [EG][FA] [GB]2 | %12
w: my~ pos * ses sions~|lie.~|||
[M:3/4] [FA]3 [GB] [FA][EG] |[M:1/4] [DF][DF] |[M:4/4] [EG]2 [EG]>[EG] GA [EB]2 | [DF]6 GF | %16
w: ||||
 E2 z F [EG]2 [FA]2 | [GB]2 [Ge]2 [GB]2 [EB][EA] | [EG]2 [EG]E [DF]2 [DF]2 |[M:3/4] [B,E]6 |] %20
w: ||||
V:2
 z4 z2 E2 | x8 | x8 |[M:2/4] x4 | E2 z2 |[M:4/4] z4 z2 D2 | z2 E2 z4 | z4 z2 E2 | x8 |[M:3/4] x6 | %10
[M:1/4] x2 |[M:4/4] x8 |[M:3/4] x6 |[M:1/4] x2 |[M:4/4] z4 E2 z2 | z4 z2 D2 | z2 E2 z4 | x8 | x8 | %19
[M:3/4] x6 |] %20
V:3
 z4 z2 G,A, | B,2 B,2 B,2 B,2 | B,2 B,2 B,2 B,2 |[M:2/4] B,2 B,2 | B,2 B,2 |[M:4/4] B,6 B,A, | %6
 G,2 G,A, B,2 B,2 | B,2 B,2 B,2 B,C | B,2 B,G, B,2 A,2 |[M:3/4] G,6 |[M:1/4] G,A, | %11
[M:4/4] B,2 B,>B, B,2 B,2 |[M:3/4] B,6 |[M:1/4] B,B, |[M:4/4] B,2 B,>B, B,2 B,2 | B,6 B,A, | %16
 G,2 G,A, B,2 B,2 | B,2 B,2 B,2 EC | B,2 B,G, B,2 A,2 |[M:3/4] G,6 |] %20
V:4
 z4 z2 E,2 | E,2 E,2 E,2 E,2 | B,,2 B,,2 B,,2 B,,2 |[M:2/4] E,2 E,2 | E,2 G,,2 |[M:4/4] B,,6 B,,2 | %6
 E,2 E,2 E,2 E,2 | E,2 E,2 E,2 G,,A,, | B,,2 B,,2 B,,2 B,,2 |[M:3/4] E,6 |[M:1/4] E,E, | %11
[M:4/4] E,2 E,>E, E,2 E,2 |[M:3/4] B,,6 |[M:1/4] B,,B,, |[M:4/4] E,2 E,>E, E,2 G,,2 | B,,6 B,,2 | %16
 E,2 E,2 E,2 E,2 | E,2 E,2 E,2 G,,A,, | B,,2 B,,B,, B,,2 B,,2 |[M:3/4] E,6 |] %20

